X: 20981
T: Julia Clifford's
R: slide
M: 12/8
K: Bdorian
efg|:f2 B Bce f2 e fga|fBB Bce fec cag|
f2 B Bc/d/e f2 e fga|bag a2 c e2 c e2 g:|
|:f2 b b2 ^a b2 c' b2 =a|f2 b baf f/g/ae f2 a|
[1 f3 b^ab b3 baf|fec a2 c e2 c e2 g:|
[2 b3 aba g3 fec|ec/d/e a2 c e2 c||

